svgs/sharp-light/nfc-lock.svg

<svg xmlns="http://www.w3.org/2000/svg" viewBox="0 0 576 512"><!--! Font Awesome Pro 6.6.0 by @fontawesome - https://fontawesome.com License - https://fontawesome.com/license (Commercial License) Copyright 2024 Fonticons, Inc. --><path d="M416 64L32 64l0 384 288 0 0 32L32 480 0 480l0-32L0 64 0 32l32 0 384 0 32 0 0 32 0 97.1c-11.3 1.6-22.1 4.9-32 9.6L416 64zm-32 48l0 81.6c-19.8 20.2-32 47.9-32 78.4l0-144-112 0 0 82.7c18.6 6.6 32 24.4 32 45.3c0 26.5-21.5 48-48 48s-48-21.5-48-48c0-20.9 13.4-38.7 32-45.3l0-98.7 0-16 16 0 144 0 16 0 0 16zM96 384l224 0 0 32L80 416l-16 0 0-16 0-288 0-16 16 0 64 0 16 0 0 32-16 0-48 0 0 256zM224 240a16 16 0 1 0 0 32 16 16 0 1 0 0-32zm240-16c-26.5 0-48 21.5-48 48l0 48 96 0 0-48c0-26.5-21.5-48-48-48zm-80 48c0-44.2 35.8-80 80-80s80 35.8 80 80l0 48 32 0 0 32 0 128 0 32-32 0-160 0-32 0 0-32 0-128 0-32 32 0 0-48zm160 80l-160 0 0 128 160 0 0-128z"/></svg>

<svg xmlns="http://www.w3.org/2000/svg" viewBox="0 0 576 512"><!--! Font Awesome Pro 6.4.0 by @fontawesome - https://fontawesome.com License - https://fontawesome.com/license (Commercial License) Copyright 2023 Fonticons, Inc. --><path d="M416 64H32V448H320l0 32H32 0V448 64 32H32 416h32V64v97.1c-11.3 1.6-22.1 4.9-32 9.6V64zm-32 48v81.6c-19.8 20.2-32 47.9-32 78.4V128H240v82.7c18.6 6.6 32 24.4 32 45.3c0 26.5-21.5 48-48 48s-48-21.5-48-48c0-20.9 13.4-38.7 32-45.3V112 96h16H368h16v16zM96 384H320l0 32H80 64V400 112 96H80h64 16v32H144 96V384zM224 240a16 16 0 1 0 0 32 16 16 0 1 0 0-32zm240-16c-26.5 0-48 21.5-48 48v48h96V272c0-26.5-21.5-48-48-48zm-80 48c0-44.2 35.8-80 80-80s80 35.8 80 80v48h32v32V480v32H544 384 352V480 352 320h32V272zm160 80H384V480H544V352z"/></svg>
